Newaita/actions/16/align-horizontal-top-out.svg

<svg height="16" viewBox="0 0 16 16" width="16" xmlns="http://www.w3.org/2000/svg"><g fill="#424242"><path d="m14.554688 8.0625c0-.183594-.148438-.328125-.332032-.328125h-12.570312c-.179688 0-.328125.144531-.328125.328125s.148437.332031.328125.332031h12.570312c.183594 0 .332032-.148437.332032-.332031zm0 0"/><path d="m9.921875 14.015625c-.730469 0-1.320313-.589844-1.320313-1.320313v-1.984374c0-.734376.589844-1.324219 1.320313-1.324219h1.984375c.734375 0 1.324219.589843 1.324219 1.324219v1.984374c0 .730469-.589844 1.320313-1.324219 1.320313zm.332031-1.320313h1.324219c.183594 0 .328125-.148437.328125-.332031v-1.324219c0-.183593-.144531-.328124-.328125-.328124h-1.324219c-.183594 0-.332031.144531-.332031.328124v1.324219c0 .183594.148437.332031.332031.332031zm0 0"/><path d="m3.96875 14.679688c-.734375 0-1.324219-.589844-1.324219-1.324219v-2.644531c0-.734376.589844-1.324219 1.324219-1.324219h1.984375c.734375 0 1.324219.589843 1.324219 1.324219v2.644531c0 .734375-.589844 1.324219-1.324219 1.324219zm.332031-1.324219h1.320313c.183594 0 .332031-.148438.332031-.332031v-1.984376c0-.183593-.148437-.328124-.332031-.328124h-1.320313c-.183593 0-.332031.144531-.332031.328124v1.984376c0 .183593.148438.332031.332031.332031zm0 0"/><path d="m13.230469 5.417969c0 .730469-.589844 1.320312-1.324219 1.320312h-2.644531c-.734375 0-1.324219-.589843-1.324219-1.320312v-1.984375c0-.734375.589844-1.324219 1.324219-1.324219h2.644531c.734375 0 1.324219.589844 1.324219 1.324219zm0 0"/></g></svg>

<svg xmlns="http://www.w3.org/2000/svg" xmlns:xlink="http://www.w3.org/1999/xlink" width="16px" height="16px" viewBox="0 0 16 16" version="1.1">
<g id="surface1">
     <defs>
  <style id="current-color-scheme" type="text/css">
   .ColorScheme-Text { color:#424242; } .ColorScheme-Highlight { color:#eeeeee; }
  </style>
 </defs>
<path style="fill:currentColor" class="ColorScheme-Text" d="M 14.554688 8.0625 C 14.554688 7.878906 14.40625 7.734375 14.222656 7.734375 L 1.652344 7.734375 C 1.472656 7.734375 1.324219 7.878906 1.324219 8.0625 C 1.324219 8.246094 1.472656 8.394531 1.652344 8.394531 L 14.222656 8.394531 C 14.40625 8.394531 14.554688 8.246094 14.554688 8.0625 Z M 14.554688 8.0625 "/>
     <defs>
  <style id="current-color-scheme" type="text/css">
   .ColorScheme-Text { color:#424242; } .ColorScheme-Highlight { color:#eeeeee; }
  </style>
 </defs>
<path style="fill:currentColor" class="ColorScheme-Text" d="M 9.921875 14.015625 C 9.191406 14.015625 8.601562 13.425781 8.601562 12.695312 L 8.601562 10.710938 C 8.601562 9.976562 9.191406 9.386719 9.921875 9.386719 L 11.90625 9.386719 C 12.640625 9.386719 13.230469 9.976562 13.230469 10.710938 L 13.230469 12.695312 C 13.230469 13.425781 12.640625 14.015625 11.90625 14.015625 Z M 10.253906 12.695312 L 11.578125 12.695312 C 11.761719 12.695312 11.90625 12.546875 11.90625 12.363281 L 11.90625 11.039062 C 11.90625 10.855469 11.761719 10.710938 11.578125 10.710938 L 10.253906 10.710938 C 10.070312 10.710938 9.921875 10.855469 9.921875 11.039062 L 9.921875 12.363281 C 9.921875 12.546875 10.070312 12.695312 10.253906 12.695312 Z M 10.253906 12.695312 "/>
     <defs>
  <style id="current-color-scheme" type="text/css">
   .ColorScheme-Text { color:#424242; } .ColorScheme-Highlight { color:#eeeeee; }
  </style>
 </defs>
<path style="fill:currentColor" class="ColorScheme-Text" d="M 3.96875 14.679688 C 3.234375 14.679688 2.644531 14.089844 2.644531 13.355469 L 2.644531 10.710938 C 2.644531 9.976562 3.234375 9.386719 3.96875 9.386719 L 5.953125 9.386719 C 6.6875 9.386719 7.277344 9.976562 7.277344 10.710938 L 7.277344 13.355469 C 7.277344 14.089844 6.6875 14.679688 5.953125 14.679688 Z M 4.300781 13.355469 L 5.621094 13.355469 C 5.804688 13.355469 5.953125 13.207031 5.953125 13.023438 L 5.953125 11.039062 C 5.953125 10.855469 5.804688 10.710938 5.621094 10.710938 L 4.300781 10.710938 C 4.117188 10.710938 3.96875 10.855469 3.96875 11.039062 L 3.96875 13.023438 C 3.96875 13.207031 4.117188 13.355469 4.300781 13.355469 Z M 4.300781 13.355469 "/>
     <defs>
  <style id="current-color-scheme" type="text/css">
   .ColorScheme-Text { color:#424242; } .ColorScheme-Highlight { color:#eeeeee; }
  </style>
 </defs>
<path style="fill:currentColor" class="ColorScheme-Text" d="M 13.230469 5.417969 C 13.230469 6.148438 12.640625 6.738281 11.90625 6.738281 L 9.261719 6.738281 C 8.527344 6.738281 7.9375 6.148438 7.9375 5.417969 L 7.9375 3.433594 C 7.9375 2.699219 8.527344 2.109375 9.261719 2.109375 L 11.90625 2.109375 C 12.640625 2.109375 13.230469 2.699219 13.230469 3.433594 Z M 13.230469 5.417969 "/>
</g>
</svg>
